Newaita-dark/apps/48/jyellow.svg

<svg height="48" viewBox="0 0 48 48" width="48" xmlns="http://www.w3.org/2000/svg" xmlns:xlink="http://www.w3.org/1999/xlink"><linearGradient id="a" gradientUnits="userSpaceOnUse" x1="20.341796" x2="20.341796" y1="42.05089990639" y2="44.03546450005"><stop offset="0" stop-opacity=".27451"/><stop offset="1" stop-opacity="0"/></linearGradient><linearGradient id="b"><stop offset="0" stop-opacity=".313726"/><stop offset=".222222" stop-opacity=".27451"/><stop offset="1" stop-opacity="0"/></linearGradient><radialGradient id="c" cx="450.908936" cy="189.579361" gradientTransform="matrix(.00000026 -.117199 -.210958 -.00000015 64.800163 95.393002)" gradientUnits="userSpaceOnUse" r="21.166656" xlink:href="#b"/><radialGradient id="d" cx="450.908936" cy="189.579361" gradientTransform="matrix(-.00000026 .117199 .210958 .00000015 -17.17061 -11.29122)" gradientUnits="userSpaceOnUse" r="21.166656" xlink:href="#b"/><radialGradient id="e" cx="450.908936" cy="189.579361" gradientTransform="matrix(-.00000026 -.117199 .210958 -.00000015 -17.17061 95.393002)" gradientUnits="userSpaceOnUse" r="21.166656" xlink:href="#b"/><radialGradient id="f" cx="450.908936" cy="189.579361" gradientTransform="matrix(.00000026 .117199 -.210958 .00000015 64.80016 -11.291225)" gradientUnits="userSpaceOnUse" r="21.166656" xlink:href="#b"/><linearGradient id="g" gradientUnits="userSpaceOnUse" x1="23.814786" x2="23.81478740639" y1="48.004598" y2="-3.59410449995"><stop offset="0" stop-color="#ffa726"/><stop offset="1" stop-color="#ffb74d"/></linearGradient><path d="m22.328125 41.308594h2.976563v2.726562h-2.976563zm0 0" fill="url(#a)"/><path d="m25.304688 42.050781h3.96875v-1.984375h-3.96875zm0 0" fill="url(#c)"/><path d="m22.328125 42.050781h-3.972656v1.984375h3.972656zm0 0" fill="url(#d)"/><path d="m22.328125 42.050781h-3.972656v-1.984375h3.972656zm0 0" fill="url(#e)"/><path d="m25.304688 42.050781h3.96875v1.984375h-3.96875zm0 0" fill="url(#f)"/><path d="m19.84375 4.34375v5.953125c.601562.125 3.859375-.027344 4.957031-.015625 1.496094.015625 1 1.503906 1 1.503906s.101563 2.417969.101563 11.226563c0 14.742187.199218 14.363281-4.417969 14.351562-3.945313-.007812-4.730469-1.023437-2.804687-3.15625 2.941406-4.105469-.648438-7.703125-4.789063-8.03125-3.96875 0-7.9375 0-7.855469 5.976563-.082031 9.898437 10.25 9.832031 15.558594 9.921875 6.191406-.023438 11.386719-1.011719 14.128906-6.96875.96875-2.511719 1.070313-22.894531 1.070313-22.894531-.078125.070312-.078125-1.914063.914062-1.914063h3.96875l.050781-5.953125zm0 0" fill="url(#g)"/><path d="m19.84375 4.34375v.496094h21.878906l.003906-.496094zm6.015625 7.179688c-.023437.15625-.058594.261718-.058594.261718s.003907.148438.011719.449219c.03125-.113281.097656-.410156.046875-.710937zm10.921875.671874c-.03125.296876-.015625.515626.007812.515626.003907-.191407.003907-.5.003907-.5-.003907.003906-.007813 0-.011719-.015626zm-22.890625 13.980469c-3.96875 0-7.9375 0-7.855469 5.976563v.15625c.070313-5.636719 3.964844-5.636719 7.855469-5.636719 2.992187.238281 5.695313 2.183594 5.855469 4.789063.175781-2.855469-2.679688-5.035157-5.855469-5.285157zm12.011719.59375c-.003906 10.917969-.234375 10.601563-4.417969 10.59375-2.347656-.003906-3.574219-.363281-3.78125-1.105469-.246094 1.078126.960937 1.597657 3.78125 1.601563 4.246094.011719 4.417969.320313 4.417969-11.089844zm0 0" fill="#fff" fill-opacity=".392157"/><path d="m41.726562 4.34375-.050781 5.554688h-3.96875c-.886719 0-.980469 1.589843-.933593 1.871093.046874-.566406.261718-1.472656.933593-1.472656h3.96875zm-17.15625 5.535156c-1.265624.007813-4.160156.132813-4.726562.019532v.398437c.601562.125 3.859375-.027344 4.957031-.015625.769531.007812 1.011719.40625 1.0625.789062.054688-.4375-.007812-1.175781-1.0625-1.1875-.066406-.003906-.144531-.003906-.230469-.003906zm1.242188 1.867188c-.007812.023437-.011719.039062-.011719.039062s.101563 2.417969.101563 11.226563v2.589843c0-.921874 0-1.914062 0-2.992187 0-7.035156-.066406-9.957031-.089844-10.863281zm10.980469.464844v.003906c-.015625 2.070312-.15625 20.121094-1.070313 22.488281-2.742187 5.957031-7.9375 6.949219-14.128906 6.972656-5.296875-.09375-15.597656-.027343-15.558594-9.863281-.003906.113281-.003906.222656 0 .339844-.082031 9.898437 10.25 9.832031 15.558594 9.921875 6.191406-.023438 11.386719-1.011719 14.128906-6.96875.96875-2.511719 1.070313-22.894531 1.070313-22.894531zm-17.042969 18.800781c-.042969.878906-.371094 1.824219-1.070312 2.792969-.757813.839843-1.097657 1.507812-.988282 2.007812.082032-.4375.417969-.972656.988282-1.605469.804687-1.121093 1.121093-2.207031 1.070312-3.195312zm0 0" fill-opacity=".235294"/><path d="m211.646455-168.671091v63.493937c6.416054 1.333206 41.162736-.291639 52.869952-.166651 15.956809.166651 10.665648 16.040135 10.665648 16.040135s1.08323 25.789204 1.08323 119.738565c0 157.234985 2.124797 153.193705-47.120501 153.068716-42.079315-.083325-50.453515-10.915624-29.91381-33.663451 31.372005-43.787486-6.916006-82.158821-51.078455-85.658487-42.329291 0-84.658582 0-83.783666 63.743913-.874916 105.573251 109.322894 104.864985 165.942487 105.823227 66.03536-.249976 121.446735-10.790636 150.693942-74.326235 10.332347-26.789109 11.415577-244.185015 11.415577-244.185015-.833254.749928-.833254-20.414717 9.749069-20.414717h42.329291l.541615-63.493937zm0 0" fill="none" stroke="#212121" stroke-width="3" transform="matrix(.093759 0 0 .093759 0 20.158175)"/></svg>

<?xml version="1.0" encoding="UTF-8"?>
<svg xmlns="http://www.w3.org/2000/svg" xmlns:xlink="http://www.w3.org/1999/xlink" width="48px" height="48px" viewBox="0 0 48 48" version="1.1">
<defs>
<linearGradient id="linear0" gradientUnits="userSpaceOnUse" x1="254" y1="233.500015" x2="254" y2="254.666672" gradientTransform="matrix(0.093759,0,0,0.093759,-3.47299,20.158172)">
<stop offset="0" style="stop-color:rgb(0%,0%,0%);stop-opacity:0.27451;"/>
<stop offset="1" style="stop-color:rgb(0%,0%,0%);stop-opacity:0;"/>
</linearGradient>
<radialGradient id="radial0" gradientUnits="userSpaceOnUse" cx="450.908936" cy="189.579361" fx="450.908936" fy="189.579361" r="21.166656" gradientTransform="matrix(0.000000261256,-0.117199,-0.210958,-0.000000152308,64.800163,95.393002)">
<stop offset="0" style="stop-color:rgb(0%,0%,0%);stop-opacity:0.313726;"/>
<stop offset="0.222222" style="stop-color:rgb(0%,0%,0%);stop-opacity:0.27451;"/>
<stop offset="1" style="stop-color:rgb(0%,0%,0%);stop-opacity:0;"/>
</radialGradient>
<radialGradient id="radial1" gradientUnits="userSpaceOnUse" cx="450.908936" cy="189.579361" fx="450.908936" fy="189.579361" r="21.166656" gradientTransform="matrix(-0.000000261256,0.117199,0.210958,0.000000152308,-17.17061,-11.29122)">
<stop offset="0" style="stop-color:rgb(0%,0%,0%);stop-opacity:0.313726;"/>
<stop offset="0.222222" style="stop-color:rgb(0%,0%,0%);stop-opacity:0.27451;"/>
<stop offset="1" style="stop-color:rgb(0%,0%,0%);stop-opacity:0;"/>
</radialGradient>
<radialGradient id="radial2" gradientUnits="userSpaceOnUse" cx="450.908936" cy="189.579361" fx="450.908936" fy="189.579361" r="21.166656" gradientTransform="matrix(-0.000000261256,-0.117199,0.210958,-0.000000152308,-17.17061,95.393002)">
<stop offset="0" style="stop-color:rgb(0%,0%,0%);stop-opacity:0.313726;"/>
<stop offset="0.222222" style="stop-color:rgb(0%,0%,0%);stop-opacity:0.27451;"/>
<stop offset="1" style="stop-color:rgb(0%,0%,0%);stop-opacity:0;"/>
</radialGradient>
<radialGradient id="radial3" gradientUnits="userSpaceOnUse" cx="450.908936" cy="189.579361" fx="450.908936" fy="189.579361" r="21.166656" gradientTransform="matrix(0.000000261256,0.117199,-0.210958,0.000000152308,64.80016,-11.291225)">
<stop offset="0" style="stop-color:rgb(0%,0%,0%);stop-opacity:0.313726;"/>
<stop offset="0.222222" style="stop-color:rgb(0%,0%,0%);stop-opacity:0.27451;"/>
<stop offset="1" style="stop-color:rgb(0%,0%,0%);stop-opacity:0;"/>
</radialGradient>
<linearGradient id="linear1" gradientUnits="userSpaceOnUse" x1="254" y1="297" x2="254.000015" y2="-253.333328" gradientTransform="matrix(0.093759,0,0,0.093759,0,20.158175)">
<stop offset="0" style="stop-color:rgb(100%,65.490198%,14.901961%);stop-opacity:1;"/>
<stop offset="1" style="stop-color:rgb(100%,71.764708%,30.19608%);stop-opacity:1;"/>
</linearGradient>
</defs>
<g id="surface1">
<path style=" stroke:none;fill-rule:nonzero;fill:url(#linear0);" d="M 22.328125 41.308594 L 25.304688 41.308594 L 25.304688 44.035156 L 22.328125 44.035156 Z M 22.328125 41.308594 "/>
<path style=" stroke:none;fill-rule:nonzero;fill:url(#radial0);" d="M 25.304688 42.050781 L 29.273438 42.050781 L 29.273438 40.066406 L 25.304688 40.066406 Z M 25.304688 42.050781 "/>
<path style=" stroke:none;fill-rule:nonzero;fill:url(#radial1);" d="M 22.328125 42.050781 L 18.355469 42.050781 L 18.355469 44.035156 L 22.328125 44.035156 Z M 22.328125 42.050781 "/>
<path style=" stroke:none;fill-rule:nonzero;fill:url(#radial2);" d="M 22.328125 42.050781 L 18.355469 42.050781 L 18.355469 40.066406 L 22.328125 40.066406 Z M 22.328125 42.050781 "/>
<path style=" stroke:none;fill-rule:nonzero;fill:url(#radial3);" d="M 25.304688 42.050781 L 29.273438 42.050781 L 29.273438 44.035156 L 25.304688 44.035156 Z M 25.304688 42.050781 "/>
<path style=" stroke:none;fill-rule:nonzero;fill:url(#linear1);" d="M 19.84375 4.34375 L 19.84375 10.296875 C 20.445312 10.421875 23.703125 10.269531 24.800781 10.28125 C 26.296875 10.296875 25.800781 11.785156 25.800781 11.785156 C 25.800781 11.785156 25.902344 14.203125 25.902344 23.011719 C 25.902344 37.753906 26.101562 37.375 21.484375 37.363281 C 17.539062 37.355469 16.753906 36.339844 18.679688 34.207031 C 21.621094 30.101562 18.03125 26.503906 13.890625 26.175781 C 9.921875 26.175781 5.953125 26.175781 6.035156 32.152344 C 5.953125 42.050781 16.285156 41.984375 21.59375 42.074219 C 27.785156 42.050781 32.980469 41.0625 35.722656 35.105469 C 36.691406 32.59375 36.792969 12.210938 36.792969 12.210938 C 36.714844 12.28125 36.714844 10.296875 37.707031 10.296875 L 41.675781 10.296875 L 41.726562 4.34375 Z M 19.84375 4.34375 "/>
<path style=" stroke:none;fill-rule:nonzero;fill:rgb(100%,100%,100%);fill-opacity:0.392157;" d="M 19.84375 4.34375 L 19.84375 4.839844 L 41.722656 4.839844 L 41.726562 4.34375 Z M 25.859375 11.523438 C 25.835938 11.679688 25.800781 11.785156 25.800781 11.785156 C 25.800781 11.785156 25.804688 11.933594 25.8125 12.234375 C 25.84375 12.121094 25.910156 11.824219 25.859375 11.523438 Z M 36.78125 12.195312 C 36.75 12.492188 36.765625 12.710938 36.789062 12.710938 C 36.792969 12.519531 36.792969 12.210938 36.792969 12.210938 C 36.789062 12.214844 36.785156 12.210938 36.78125 12.195312 Z M 13.890625 26.175781 C 9.921875 26.175781 5.953125 26.175781 6.035156 32.152344 C 6.035156 32.203125 6.035156 32.257812 6.035156 32.308594 C 6.105469 26.671875 10 26.671875 13.890625 26.671875 C 16.882812 26.910156 19.585938 28.855469 19.746094 31.460938 C 19.921875 28.605469 17.066406 26.425781 13.890625 26.175781 Z M 25.902344 26.769531 C 25.898438 37.6875 25.667969 37.371094 21.484375 37.363281 C 19.136719 37.359375 17.910156 37 17.703125 36.257812 C 17.457031 37.335938 18.664062 37.855469 21.484375 37.859375 C 25.730469 37.871094 25.902344 38.179688 25.902344 26.769531 Z M 25.902344 26.769531 "/>
<path style=" stroke:none;fill-rule:nonzero;fill:rgb(0%,0%,0%);fill-opacity:0.235294;" d="M 41.726562 4.34375 L 41.675781 9.898438 L 37.707031 9.898438 C 36.820312 9.898438 36.726562 11.488281 36.773438 11.769531 C 36.820312 11.203125 37.035156 10.296875 37.707031 10.296875 L 41.675781 10.296875 Z M 24.570312 9.878906 C 23.304688 9.886719 20.410156 10.011719 19.84375 9.898438 L 19.84375 10.296875 C 20.445312 10.421875 23.703125 10.269531 24.800781 10.28125 C 25.570312 10.289062 25.8125 10.6875 25.863281 11.070312 C 25.917969 10.632812 25.855469 9.894531 24.800781 9.882812 C 24.734375 9.878906 24.65625 9.878906 24.570312 9.878906 Z M 25.8125 11.746094 C 25.804688 11.769531 25.800781 11.785156 25.800781 11.785156 C 25.800781 11.785156 25.902344 14.203125 25.902344 23.011719 C 25.902344 23.929688 25.902344 24.792969 25.902344 25.601562 C 25.902344 24.679688 25.902344 23.6875 25.902344 22.609375 C 25.902344 15.574219 25.835938 12.652344 25.8125 11.746094 Z M 36.792969 12.210938 C 36.792969 12.210938 36.792969 12.214844 36.792969 12.214844 C 36.777344 14.285156 36.636719 32.335938 35.722656 34.703125 C 32.980469 40.660156 27.785156 41.652344 21.59375 41.675781 C 16.296875 41.582031 5.996094 41.648438 6.035156 31.8125 C 6.03125 31.925781 6.03125 32.035156 6.035156 32.152344 C 5.953125 42.050781 16.285156 41.984375 21.59375 42.074219 C 27.785156 42.050781 32.980469 41.0625 35.722656 35.105469 C 36.691406 32.59375 36.792969 12.210938 36.792969 12.210938 Z M 19.75 31.011719 C 19.707031 31.890625 19.378906 32.835938 18.679688 33.804688 C 17.921875 34.644531 17.582031 35.3125 17.691406 35.8125 C 17.773438 35.375 18.109375 34.839844 18.679688 34.207031 C 19.484375 33.085938 19.800781 32 19.75 31.011719 Z M 19.75 31.011719 "/>
<path style="fill:none;stroke-width:3;stroke-linecap:butt;stroke-linejoin:miter;stroke:rgb(12.941177%,12.941177%,12.941177%);stroke-opacity:1;stroke-miterlimit:4;" d="M 211.646455 -168.671091 L 211.646455 -105.177154 C 218.062509 -103.843948 252.809191 -105.468793 264.516407 -105.343805 C 280.473216 -105.177154 275.182055 -89.30367 275.182055 -89.30367 C 275.182055 -89.30367 276.265285 -63.514466 276.265285 30.434895 C 276.265285 187.66988 278.390082 183.6286 229.144784 183.503611 C 187.065469 183.420286 178.691269 172.587987 199.230974 149.84016 C 230.602979 106.052674 192.314968 67.681339 148.152519 64.181673 C 105.823228 64.181673 63.493937 64.181673 64.368853 127.925586 C 63.493937 233.498837 173.691747 232.790571 230.31134 233.748813 C 296.3467 233.498837 351.758075 222.958177 381.005282 159.422578 C 391.337629 132.633469 392.420859 -84.762437 392.420859 -84.762437 C 391.587605 -84.012509 391.587605 -105.177154 402.169928 -105.177154 L 444.499219 -105.177154 L 445.040834 -168.671091 Z M 211.646455 -168.671091 " transform="matrix(0.093759,0,0,0.093759,0,20.158175)"/>
</g>
</svg>
